icons/library-15.svg

<?xml version="1.0" encoding="utf-8"?>
<!-- Generator: Adobe Illustrator 19.2.1, SVG Export Plug-In . SVG Version: 6.00 Build 0)  -->
<!DOCTYPE svg PUBLIC "-//W3C//DTD SVG 1.1//EN" "http://www.w3.org/Graphics/SVG/1.1/DTD/svg11.dtd">
<svg version="1.1" id="Layer_1" xmlns="http://www.w3.org/2000/svg" xmlns:xlink="http://www.w3.org/1999/xlink" x="0px" y="0px"
	 width="15px" height="15px" viewBox="0 0 15 15" style="enable-background:new 0 0 15 15;" xml:space="preserve">
<path d="M7.47,4.92C7.47,4.92,5.7,3,1,3v8c4.7,0,6.47,2,6.47,2S9.3,11,14,11V3C9.3,3,7.47,4.92,7.47,4.92z M13,10
	c-1.9614,0.0492-3.8727,0.6299-5.53,1.68C5.836,10.6273,3.9432,10.0459,2,10V4c3.4,0.26,4.73,1.6,4.75,1.61l0.73,0.74L8.2,5.6
	c0,0,1.4-1.34,4.8-1.6V10z M8,10.24l-0.1-0.17c1.3011-0.5931,2.6827-0.9907,4.1-1.18v0.2c-1.3839,0.1953-2.7316,0.5929-4,1.18V10.24
	z M8,9.24L7.9,9.07C9.2016,8.4802,10.5832,8.086,12,7.9v0.2c-1.3844,0.1988-2.7321,0.5997-4,1.19V9.24z M8,8.24L7.9,8.07
	C9.2015,7.48,10.5831,7.0857,12,6.9v0.2c-1.3845,0.1981-2.7323,0.599-4,1.19V8.24z M8,7.24L7.9,7.07
	C9.2013,6.4794,10.583,6.0851,12,5.9v0.2c-1.3844,0.1986-2.7321,0.5996-4,1.19V7.24z M6.9,10.24C5.6639,9.6641,4.3499,9.2733,3,9.08
	v-0.2c1.3872,0.2028,2.7358,0.6141,4,1.22L6.9,10.24z M6.9,9.24C5.6629,8.671,4.3488,8.2869,3,8.1V7.9
	c1.386,0.2027,2.7341,0.6105,4,1.21L6.9,9.24z M6.9,8.24C5.6631,7.6705,4.3489,7.2863,3,7.1V6.9c1.3868,0.199,2.7354,0.607,4,1.21
	L6.9,8.24z M6.9,7.24C5.6629,6.671,4.3488,6.2869,3,6.1V5.9c1.386,0.2024,2.7342,0.6102,4,1.21L6.9,7.24z"/>
</svg>

<svg id="Layer_1" data-name="Layer 1" xmlns="http://www.w3.org/2000/svg" width="15" height="15" viewBox="0 0 15 15">
  <title>library-15</title>
  <path d="M7.47,4.92S5.7,3,1,3v8c4.7,0,6.47,2,6.47,2S9.3,11,14,11V3C9.3,3,7.47,4.92,7.47,4.92ZM13,10a10.84,10.84,0,0,0-5.53,1.68A10.56,10.56,0,0,0,2,10V4C5.4,4.26,6.73,5.6,6.75,5.61L7.48,6.35,8.2,5.6S9.6,4.26,13,4v6Zm-5,.24-0.1-.17A14.52,14.52,0,0,1,12,8.89l0,0.2A14.27,14.27,0,0,0,8,10.27Zm0-1-0.1-.17A14.51,14.51,0,0,1,12,7.9l0,0.2A14.29,14.29,0,0,0,8,9.29Zm0-1-0.1-.17A14.49,14.49,0,0,1,12,6.9l0,0.2A14.24,14.24,0,0,0,8,8.29Zm0-1-0.1-.17A14.45,14.45,0,0,1,12,5.9l0,0.2A14.28,14.28,0,0,0,8,7.29Zm-1.1,3A13.9,13.9,0,0,0,3,9.08l0-.2A13.91,13.91,0,0,1,7,10.1Zm0-1A13.9,13.9,0,0,0,3,8.1l0-.2A14.12,14.12,0,0,1,7,9.11Zm0-1A13.86,13.86,0,0,0,3,7.1l0-.2A13.87,13.87,0,0,1,7,8.11Zm0-1A13.9,13.9,0,0,0,3,6.1l0-.2A14.1,14.1,0,0,1,7,7.11Z"/>
</svg>
